!!!COM: Anonymous
!!!CDT: fl. XV c. [?]
!!!ODT: XV c.
!!!OTL: Breve regnum erigitur
!!!TXO: Latin
!!!voices: 2
!!!pag:
!!!EFL:
!!!YEM: Creative Commons CC/BY/NC/SA 4.0
!!!ENC: Marcin Konik
!!!END: 2014-08-04
!!!EED: Marcin Konik
!!!EEV:
!!!ONB: Encoded in vim by Marcin Konik
!!!CharacterEncoding: utf-8
!!!RDF**kern: l=long note in original notation
!!!RDF**kern: i=editorial accidental
!!!RDF**kern: > = above
!!!RDF**kern: < = below
!!muse2ps: z14jc180F
!!title: @{CDT}, @{OTL}, ed. @{ENC}
**kern	**kern
*part2	*part1
*staff2	*staff1
*clefG2v8	*clefG2
*k[b-]	*k[b-]
*M2/2	*M2/2
=1-	=1-
2D	2d
2A	4e
.	4f
=2	=2
2G	2e
2A	2f
=3	=3
2G	4g
.	4f
2F	4e
.	4d
=4	=4
2E	2e
2G	2d
=5	=5
2A	4A
.	4A
4F	4d
4E	4c#i
=6	=6
1D	1d
=7	=7
2d	2d
2A	4f
.	4e
=8	=8
2A	2f
2G	2g
=9	=9
2c	4a
.	4g
2B-	4f
.	4g
=10	=10
1A	1a
=11	=11
2D	2a
4A	4e
4F	4f
=12	=12
2E	2g
2D	2a
=13	=13
4E	4g
4F	4f
4G	4e
4F	4f
=14	=14
2G	2d
4D	4f
4E	4e
=15	=15
1F	4d
.	4e
.	4c
.	4d
=16	=16
1E	1e
=17	=17
2D	2a
4E	4g
4F	4f
=18	=18
1G	2e
.	2d
=19	=19
2A	4c
.	4d
2G	4e
.	4f
=20	=20
2E	2g
4E	4e
4D	4f
=21	=21
4C	4e
4D	4d
2E	4d
.	4c#i
=22	=22
[1D	[1d
=23	=23
1D]	1d]
=24	=24
2D	2d
4G	4e
4F	4f
=25	=25
2E	2e
2G	2d
=26	=26
2A	2A
4F	4d
4E	4c#i
=27	=27
1D	1d
=28	=28
2A	2e
2B-	4g
.	4g
=29	=29
2A	2a
2G	2b-
=30	=30
2c	4a
.	4g
2B-	4g
.	4f
=31	=31
1A	1a
=32	=32
2c	4a
.	4g
2B-	4g
.	4f
=33	=33
4A	2e
4A	.
2G	2f
=34	=34
2F	4e
.	4d
2F	4c
.	4d
=35	=35
1E	1e
=36	=36
2D	2d
2F	2a
=37	=37
2E	2g
2A	2f
=38	=38
2F	4e
.	4d
4E	4d
4E	4c#i
=39	=39
1D;	1d;
==	==
*-	*-
